build/img/logo.svg

<svg width="168" height="17" viewBox="0 0 168 17" fill="none" xmlns="http://www.w3.org/2000/svg">
<path d="M14.7028 10.8111V16.0073H11.9411V13.2873H2.84612V16.0073H0.0844727L0.102884 10.8111H0.61839C1.39165 10.7861 1.93784 10.2109 2.25697 9.08535C2.57609 7.95984 2.77247 6.35285 2.84612 4.26439L2.9934 0.15625H12.8985V10.8111H14.7028ZM5.47888 4.54577C5.41751 6.10899 5.28864 7.42209 5.09225 8.48508C4.89587 9.53556 4.59516 10.3109 4.19012 10.8111H9.95275V2.63239H5.53412L5.47888 4.54577ZM80.2184 7.99735H78.3404V13.2873H75.4131V7.99735H73.4984L70.6078 13.2873H67.165L71.0313 6.42163L67.4043 0.15625H70.5526L73.4431 5.46494H75.4131V0.15625H78.3404V5.46494H80.2552L83.1641 0.15625H86.3124L82.7038 6.42163L86.5517 13.2873H83.1089L80.2184 7.99735ZM145.664 8.27873C145.664 8.31625 145.646 8.57887 145.609 9.0666H138.115C138.25 9.69188 138.57 10.1859 139.073 10.5485C139.576 10.9112 140.202 11.0925 140.951 11.0925C141.466 11.0925 141.92 11.0175 142.313 10.8674C142.718 10.7048 143.093 10.4547 143.436 10.1171L144.964 11.8054C144.032 12.8934 142.669 13.4374 140.877 13.4374C139.76 13.4374 138.772 13.2185 137.913 12.7808C137.054 12.3306 136.391 11.7116 135.925 10.9237C135.458 10.1358 135.225 9.24168 135.225 8.24122C135.225 7.25326 135.452 6.36535 135.906 5.57749C136.373 4.77712 137.005 4.15809 137.802 3.72039C138.613 3.27018 139.515 3.04508 140.509 3.04508C141.479 3.04508 142.356 3.25768 143.142 3.68287C143.927 4.10807 144.541 4.72085 144.983 5.52122C145.437 6.30908 145.664 7.22825 145.664 8.27873ZM140.527 5.2586C139.877 5.2586 139.331 5.44618 138.889 5.82135C138.447 6.19653 138.177 6.70926 138.079 7.35956H142.958C142.859 6.72177 142.589 6.21529 142.147 5.84011C141.706 5.45244 141.166 5.2586 140.527 5.2586Z" fill="#8FA9FF"/>
<path d="M20.3373 3.04492C21.8715 3.04492 23.0498 3.42009 23.8722 4.17044C24.6945 4.90828 25.1057 6.02754 25.1057 7.52823V13.2871H22.4177V12.0303C21.8776 12.9682 20.8712 13.4372 19.3983 13.4372C18.6374 13.4372 17.9746 13.3059 17.41 13.0433C16.8576 12.7806 16.4342 12.418 16.1396 11.9553C15.845 11.4926 15.6978 10.9673 15.6978 10.3795C15.6978 9.44161 16.0414 8.70377 16.7288 8.16602C17.4284 7.62828 18.5024 7.3594 19.9506 7.3594H22.2336C22.2336 6.72161 22.0433 6.23389 21.6628 5.89623C21.2824 5.54607 20.7116 5.37099 19.9506 5.37099C19.4228 5.37099 18.9013 5.45853 18.3858 5.63361C17.8825 5.79619 17.4529 6.02129 17.097 6.30892L16.066 4.26423C16.606 3.87655 17.2504 3.57642 17.9991 3.36382C18.7601 3.15122 19.5394 3.04492 20.3373 3.04492ZM20.1163 11.4675C20.6073 11.4675 21.043 11.355 21.4235 11.1299C21.804 10.8923 22.074 10.5484 22.2336 10.0982V9.06644H20.2636C19.0854 9.06644 18.4962 9.46037 18.4962 10.2482C18.4962 10.6234 18.6374 10.9235 18.9197 11.1486C19.2142 11.3612 19.6131 11.4675 20.1163 11.4675ZM88.1736 3.19499H91.0273V9.19775L95.8509 3.19499H98.4837V13.2871H95.63V7.28437L90.8248 13.2871H88.1736V3.19499ZM155.432 8.01596C156.598 8.41614 157.181 9.21651 157.181 10.4171C157.181 11.33 156.844 12.0366 156.169 12.5368C155.494 13.037 154.487 13.2871 153.149 13.2871H147.865V3.19499H152.928C154.168 3.19499 155.138 3.42635 155.837 3.88906C156.537 4.33927 156.887 4.97706 156.887 5.80244C156.887 6.30267 156.758 6.74662 156.5 7.1343C156.255 7.50947 155.899 7.80336 155.432 8.01596ZM150.498 7.34065H152.671C153.677 7.34065 154.18 6.97798 154.18 6.25265C154.18 5.53982 153.677 5.1834 152.671 5.1834H150.498V7.34065ZM152.91 11.2987C153.966 11.2987 154.493 10.9298 154.493 10.192C154.493 9.80428 154.371 9.5229 154.125 9.34782C153.88 9.16023 153.493 9.06644 152.965 9.06644H150.498V11.2987H152.91Z" fill="#FDAD48"/>
<path d="M33.4372 3.04492C34.3578 3.04492 35.1924 3.26377 35.9411 3.70147C36.7021 4.12667 37.2974 4.7332 37.727 5.52106C38.1565 6.29642 38.3713 7.20308 38.3713 8.24106C38.3713 9.27904 38.1565 10.192 37.727 10.9798C37.2974 11.7552 36.7021 12.3617 35.9411 12.7994C35.1924 13.2246 34.3578 13.4372 33.4372 13.4372C32.173 13.4372 31.1788 13.0308 30.4546 12.2179V16.9263H27.5825V3.19499H30.3258V4.35803C31.0376 3.48262 32.0748 3.04492 33.4372 3.04492ZM32.9401 11.0361C33.6765 11.0361 34.278 10.786 34.7444 10.2857C35.2231 9.77301 35.4624 9.09145 35.4624 8.24106C35.4624 7.39067 35.2231 6.71536 34.7444 6.21513C34.278 5.70239 33.6765 5.44603 32.9401 5.44603C32.2037 5.44603 31.5961 5.70239 31.1174 6.21513C30.651 6.71536 30.4178 7.39067 30.4178 8.24106C30.4178 9.09145 30.651 9.77301 31.1174 10.2857C31.5961 10.786 32.2037 11.0361 32.9401 11.0361ZM107.468 13.2871L105.295 10.192L103.049 13.2871H99.9192L103.73 8.20354L100.048 3.19499H103.27L105.369 6.14009L107.523 3.19499H110.579L106.897 8.12851L110.726 13.2871H107.468ZM163.166 3.04492C164.7 3.04492 165.879 3.42009 166.701 4.17044C167.523 4.90828 167.935 6.02754 167.935 7.52823V13.2871H165.247V12.0303C164.707 12.9682 163.7 13.4372 162.227 13.4372C161.466 13.4372 160.803 13.3059 160.239 13.0433C159.687 12.7806 159.263 12.418 158.968 11.9553C158.674 11.4926 158.527 10.9673 158.527 10.3795C158.527 9.44161 158.87 8.70377 159.558 8.16603C160.257 7.62828 161.331 7.35941 162.78 7.35941H165.063C165.063 6.72161 164.872 6.23389 164.492 5.89623C164.111 5.54607 163.541 5.37099 162.78 5.37099C162.252 5.37099 161.73 5.45853 161.215 5.63361C160.711 5.79619 160.282 6.02129 159.926 6.30892L158.895 4.26423C159.435 3.87655 160.079 3.57642 160.828 3.36382C161.589 3.15122 162.368 3.04492 163.166 3.04492ZM162.945 11.4675C163.436 11.4675 163.872 11.355 164.252 11.1299C164.633 10.8923 164.903 10.5484 165.063 10.0982V9.06644H163.093C161.914 9.06644 161.325 9.46037 161.325 10.2482C161.325 10.6234 161.466 10.9235 161.749 11.1486C162.043 11.3612 162.442 11.4675 162.945 11.4675Z" fill="#F5B9D3"/>
<path d="M45.7419 6.42147C47.0306 6.43398 48.0187 6.73412 48.706 7.32189C49.3934 7.89715 49.737 8.71628 49.737 9.77927C49.737 10.8923 49.3504 11.7614 48.5772 12.3867C47.8162 12.9995 46.7422 13.3059 45.3552 13.3059L40.3843 13.2871V3.19499H43.238V6.42147H45.7419ZM45.0975 11.2237C45.6498 11.2362 46.0733 11.1174 46.3678 10.8673C46.6624 10.6172 46.8097 10.242 46.8097 9.74175C46.8097 9.25402 46.6624 8.89761 46.3678 8.67251C46.0855 8.4474 45.6621 8.3286 45.0975 8.31609L43.238 8.29734V11.2237H45.0975ZM115.988 3.04492C117.522 3.04492 118.701 3.42009 119.523 4.17044C120.345 4.90828 120.757 6.02754 120.757 7.52823V13.2871H118.069V12.0303C117.528 12.9682 116.522 13.4372 115.049 13.4372C114.288 13.4372 113.625 13.3059 113.061 13.0433C112.508 12.7806 112.085 12.418 111.79 11.9553C111.496 11.4926 111.349 10.9673 111.349 10.3795C111.349 9.44161 111.692 8.70377 112.38 8.16602C113.079 7.62828 114.153 7.3594 115.601 7.3594H117.884C117.884 6.72161 117.694 6.23389 117.314 5.89623C116.933 5.54607 116.362 5.37099 115.601 5.37099C115.074 5.37099 114.552 5.45853 114.037 5.63361C113.533 5.79619 113.104 6.02129 112.748 6.30892L111.717 4.26423C112.257 3.87655 112.901 3.57642 113.65 3.36382C114.411 3.15122 115.19 3.04492 115.988 3.04492ZM115.767 11.4675C116.258 11.4675 116.694 11.355 117.074 11.1299C117.455 10.8923 117.725 10.5484 117.884 10.0982V9.06644H115.914C114.736 9.06644 114.147 9.46037 114.147 10.2482C114.147 10.6234 114.288 10.9235 114.57 11.1486C114.865 11.3612 115.264 11.4675 115.767 11.4675Z" fill="#ACB0D5"/>
<path d="M60.3317 3.19499V13.2871H57.7726V10.3983H55.6553L53.7774 13.2871H50.7212L52.9857 9.98561C52.2984 9.71049 51.7706 9.31655 51.4024 8.80382C51.0465 8.27858 50.8685 7.64704 50.8685 6.9092C50.8685 5.72115 51.2858 4.80823 52.1204 4.17044C52.9673 3.52014 54.1272 3.19499 55.6001 3.19499H60.3317ZM55.6553 5.57734C55.0416 5.57734 54.5752 5.68989 54.2561 5.91499C53.9492 6.14009 53.7958 6.50276 53.7958 7.00299C53.7958 7.50322 53.9431 7.87214 54.2377 8.10975C54.5445 8.33485 55.0048 8.4474 55.6185 8.4474H57.7726V5.57734H55.6553ZM129.088 3.04492C130.008 3.04492 130.843 3.26377 131.592 3.70147C132.353 4.12667 132.948 4.7332 133.377 5.52106C133.807 6.29642 134.022 7.20308 134.022 8.24106C134.022 9.27904 133.807 10.192 133.377 10.9798C132.948 11.7552 132.353 12.3617 131.592 12.7994C130.843 13.2246 130.008 13.4372 129.088 13.4372C127.823 13.4372 126.829 13.0308 126.105 12.2179V16.9263H123.233V3.19499H125.976V4.35803C126.688 3.48262 127.725 3.04492 129.088 3.04492ZM128.591 11.0361C129.327 11.0361 129.928 10.786 130.395 10.2857C130.873 9.77301 131.113 9.09145 131.113 8.24106C131.113 7.39067 130.873 6.71536 130.395 6.21513C129.928 5.70239 129.327 5.44603 128.591 5.44603C127.854 5.44603 127.247 5.70239 126.768 6.21513C126.301 6.71536 126.068 7.39067 126.068 8.24106C126.068 9.09145 126.301 9.77301 126.768 10.2857C127.247 10.786 127.854 11.0361 128.591 11.0361Z" fill="#48A9AB"/>
</svg>

<svg width="168" height="17" fill="none" xmlns="http://www.w3.org/2000/svg"><path d="M14.703 10.811v5.196H11.94v-2.72H2.846v2.72H.084l.019-5.196h.515c.774-.025 1.32-.6 1.639-1.726.32-1.125.515-2.732.59-4.82l.145-4.11h9.905V10.81h1.805zM5.479 4.546c-.061 1.563-.19 2.876-.387 3.94-.196 1.05-.497 1.825-.902 2.325h5.763V2.632H5.534L5.48 4.546zm74.74 3.451H78.34v5.29h-2.927v-5.29h-1.915l-2.89 5.29h-3.443l3.866-6.865L67.404.156h3.149l2.89 5.309h1.97V.156h2.927v5.309h1.915l2.91-5.309h3.147l-3.608 6.266 3.848 6.865h-3.443l-2.89-5.29zm65.445.282c0 .037-.018.3-.055.788h-7.494c.135.625.455 1.119.958 1.482.503.362 1.129.543 1.878.543.515 0 .969-.075 1.362-.225a3.41 3.41 0 001.123-.75l1.528 1.688c-.932 1.088-2.295 1.632-4.087 1.632-1.117 0-2.105-.218-2.964-.656-.859-.45-1.522-1.07-1.988-1.857-.467-.788-.7-1.682-.7-2.683 0-.988.227-1.876.681-2.664a4.883 4.883 0 011.896-1.857c.811-.45 1.713-.675 2.707-.675.97 0 1.847.213 2.633.638a4.538 4.538 0 011.841 1.838c.454.788.681 1.707.681 2.758zm-5.137-3.02c-.65 0-1.196.187-1.638.562-.442.376-.712.888-.81 1.539h4.879c-.099-.638-.369-1.145-.811-1.52-.441-.388-.981-.581-1.62-.581z" fill="#8FA9FF"/><path d="M20.337 3.045c1.535 0 2.713.375 3.535 1.125.823.738 1.234 1.858 1.234 3.358v5.76h-2.688V12.03c-.54.938-1.547 1.407-3.02 1.407-.76 0-1.423-.131-1.988-.394-.552-.262-.976-.625-1.27-1.088a2.871 2.871 0 01-.442-1.575c0-.938.343-1.676 1.03-2.214.7-.538 1.774-.807 3.223-.807h2.283c0-.637-.19-1.125-.571-1.463-.38-.35-.951-.525-1.712-.525-.528 0-1.05.088-1.565.263a3.967 3.967 0 00-1.289.675l-1.031-2.045c.54-.387 1.184-.688 1.933-.9a8.649 8.649 0 012.338-.32zm-.22 8.422c.49 0 .926-.112 1.306-.337.381-.238.651-.582.81-1.032V9.066h-1.97c-1.178 0-1.767.394-1.767 1.182 0 .375.141.676.424.9.294.213.693.32 1.196.32zm68.057-8.272h2.853v6.003l4.824-6.003h2.633v10.092H95.63V7.284l-4.805 6.003h-2.651V3.195zm67.258 4.821c1.166.4 1.749 1.2 1.749 2.401 0 .913-.337 1.62-1.012 2.12s-1.682.75-3.02.75h-5.284V3.195h5.063c1.24 0 2.21.231 2.909.694.7.45 1.05 1.088 1.05 1.913 0 .5-.129.945-.387 1.332-.245.375-.601.67-1.068.882zm-4.934-.675h2.173c1.006 0 1.509-.363 1.509-1.088 0-.713-.503-1.07-1.509-1.07h-2.173v2.158zm2.412 3.958c1.056 0 1.583-.37 1.583-1.107 0-.388-.122-.67-.368-.844-.245-.188-.632-.282-1.16-.282h-2.467V11.3h2.412z" fill="#FDAD48"/><path d="M33.437 3.045c.92 0 1.755.219 2.504.656a4.509 4.509 0 011.786 1.82c.43.775.644 1.682.644 2.72 0 1.038-.215 1.951-.644 2.739a4.669 4.669 0 01-1.786 1.82c-.749.425-1.583.637-2.504.637-1.264 0-2.258-.406-2.982-1.22v4.71h-2.872V3.194h2.743v1.163c.712-.875 1.749-1.313 3.111-1.313zm-.497 7.991c.736 0 1.338-.25 1.804-.75.48-.513.718-1.195.718-2.045 0-.85-.239-1.526-.718-2.026-.466-.513-1.068-.769-1.804-.769s-1.344.256-1.823.77c-.466.5-.7 1.175-.7 2.025 0 .85.234 1.532.7 2.045.48.5 1.087.75 1.823.75zm74.528 2.251l-2.173-3.095-2.246 3.095h-3.13l3.811-5.083-3.682-5.009h3.222l2.099 2.945 2.154-2.945h3.056l-3.682 4.934 3.829 5.158h-3.258zm55.698-10.242c1.534 0 2.713.375 3.535 1.125.822.738 1.234 1.858 1.234 3.358v5.76h-2.688V12.03c-.54.938-1.547 1.407-3.02 1.407-.761 0-1.424-.131-1.988-.394-.552-.262-.976-.625-1.271-1.088a2.875 2.875 0 01-.441-1.575c0-.938.343-1.676 1.031-2.214.699-.538 1.773-.807 3.222-.807h2.283c0-.637-.191-1.125-.571-1.463-.381-.35-.951-.525-1.712-.525-.528 0-1.05.088-1.565.263a3.962 3.962 0 00-1.289.675l-1.031-2.045c.54-.387 1.184-.688 1.933-.9a8.647 8.647 0 012.338-.32zm-.221 8.422c.491 0 .927-.112 1.307-.337a1.94 1.94 0 00.811-1.032V9.066h-1.97c-1.179 0-1.768.394-1.768 1.182 0 .375.141.676.424.9.294.213.693.32 1.196.32z" fill="#F5B9D3"/><path d="M45.742 6.421c1.289.013 2.277.313 2.964.9.687.576 1.031 1.395 1.031 2.458 0 1.113-.387 1.982-1.16 2.608-.76.612-1.835.919-3.222.919l-4.97-.019V3.195h2.853v3.226h2.504zm-.645 4.803c.553.012.976-.107 1.27-.357.295-.25.443-.625.443-1.125 0-.488-.148-.844-.442-1.07-.282-.225-.706-.343-1.27-.356l-1.86-.019v2.927h1.86zm70.891-8.18c1.534 0 2.713.376 3.535 1.126.822.738 1.234 1.858 1.234 3.358v5.76h-2.688V12.03c-.541.938-1.547 1.407-3.02 1.407-.761 0-1.424-.131-1.988-.394-.553-.262-.976-.625-1.271-1.088a2.875 2.875 0 01-.441-1.575c0-.938.343-1.676 1.031-2.214.699-.538 1.773-.807 3.221-.807h2.283c0-.637-.19-1.125-.57-1.463-.381-.35-.952-.525-1.713-.525-.527 0-1.049.088-1.564.263a3.962 3.962 0 00-1.289.675l-1.031-2.045c.54-.387 1.184-.688 1.933-.9a8.647 8.647 0 012.338-.32zm-.221 8.423c.491 0 .927-.112 1.307-.337.381-.238.651-.582.81-1.032V9.066h-1.97c-1.178 0-1.767.394-1.767 1.182 0 .375.141.676.423.9.295.213.694.32 1.197.32z" fill="#ACB0D5"/><path d="M60.332 3.195v10.092h-2.56v-2.889h-2.117l-1.878 2.89h-3.056l2.265-3.302c-.688-.276-1.215-.67-1.584-1.182-.355-.525-.534-1.157-.534-1.895 0-1.188.418-2.1 1.252-2.739.847-.65 2.007-.975 3.48-.975h4.732zm-4.677 2.382c-.613 0-1.08.113-1.399.338-.307.225-.46.588-.46 1.088 0 .5.147.87.442 1.107.306.225.767.337 1.38.337h2.155v-2.87h-2.118zm73.433-2.532c.92 0 1.755.219 2.504.656a4.503 4.503 0 011.785 1.82c.43.775.645 1.682.645 2.72 0 1.038-.215 1.951-.645 2.739a4.663 4.663 0 01-1.785 1.82c-.749.425-1.584.637-2.504.637-1.265 0-2.259-.406-2.983-1.22v4.71h-2.872V3.194h2.743v1.163c.712-.875 1.749-1.313 3.112-1.313zm-.497 7.991c.736 0 1.337-.25 1.804-.75.478-.513.718-1.195.718-2.045 0-.85-.24-1.526-.718-2.026-.467-.513-1.068-.769-1.804-.769-.737 0-1.344.256-1.823.77-.467.5-.7 1.175-.7 2.025 0 .85.233 1.532.7 2.045.479.5 1.086.75 1.823.75z" fill="#48A9AB"/></svg>
